icon-themes/breeze_svg/cmd/lc_editglossary.svg

<svg viewBox="0 0 24 24" xmlns="http://www.w3.org/2000/svg"><path d="m5.5 4-.53125.96875-.96875.53125.96875.53125.53125.96875.53125-.96875.96875-.53125-.96875-.53125zm5 0-.53125.96875-.96875.53125.96875.53125.53125.96875.53125-.96875.96875-.53125-.96875-.53125zm6.671875 0-13.171875 13.171875 2.828125 2.828125 13.171875-13.171875zm-.068359 1.4824219 1.414062 1.4140625-3.097656 3.0996094-1.416016-1.4160157zm-9.603516 2.5175781-.53125.96875-.96875.53125.96875.53125.53125.96875.53125-.96875.96875-.53125-.96875-.53125zm9.5 6c-1.662 0-3 1.338-3 3s1.338 3 3 3c.773297 0 1.469123-.30405 2-.78125v.78125h1v-3-3h-1v.78125c-.530877-.4772-1.226703-.78125-2-.78125zm0 1c1.108 0 2 .892 2 2s-.892 2-2 2-2-.892-2-2 .892-2 2-2z" fill="#4d4d4d"/></svg>

<svg xmlns="http://www.w3.org/2000/svg" viewBox="0 0 24 24">
 <path 
     style="fill:#4d4d4d" 
     d="M 5.5 4 L 4.96875 4.96875 L 4 5.5 L 4.96875 6.03125 L 5.5 7 L 6.03125 6.03125 L 7 5.5 L 6.03125 4.96875 L 5.5 4 z M 10.5 4 L 9.96875 4.96875 L 9 5.5 L 9.96875 6.03125 L 10.5 7 L 11.03125 6.03125 L 12 5.5 L 11.03125 4.96875 L 10.5 4 z M 17.171875 4 L 4 17.171875 L 6.828125 20 L 20 6.828125 L 17.171875 4 z M 17.103516 5.4824219 L 18.517578 6.8964844 L 15.419922 9.9960938 L 14.003906 8.5800781 L 17.103516 5.4824219 z M 7.5 8 L 6.96875 8.96875 L 6 9.5 L 6.96875 10.03125 L 7.5 11 L 8.03125 10.03125 L 9 9.5 L 8.03125 8.96875 L 7.5 8 z M 17 14 C 15.338 14 14 15.338 14 17 C 14 18.662 15.338 20 17 20 C 17.773297 20 18.469123 19.69595 19 19.21875 L 19 20 L 20 20 L 20 17 L 20 14 L 19 14 L 19 14.78125 C 18.469123 14.30405 17.773297 14 17 14 z M 17 15 C 18.108 15 19 15.892 19 17 C 19 18.108 18.108 19 17 19 C 15.892 19 15 18.108 15 17 C 15 15.892 15.892 15 17 15 z "
     />
 </svg>
